X:396
T:Byssan lull
C:anon.
O:Norway
N:Collected by Evert Taube
R:Lullaby
Z:Transcribed by Frank Nordberg - http://www.musicaviva.com abcusers 2001-2-27
M:C
L:1/8
Q:1/4=120
K:Dm
"Dm"D2A2"Dm7"A2GA|"G7"BAGF"A"E3F|"A"G2GGG2AG|"Dm"F4"A"E2z2|
"Dm"D2A2"Dm7"A2GA|"G7"BAGF"A"E3F|"A"G2GGG2AG|"Dm"F4"A"E2zE|
"Fdim"FFFD"A"E3E|"Fdim"FFFD"A"E3F|"A7"G2AB"Dm"A2"Gm"GF|"A7"E4"Dm"D2z2|]
W:
W:
W:  From Musica Viva - http://www.musicaviva.com
W:  the Internet center for free sheet music downloads.
